X: 14269
T: Gabriel's March
R: polka
M: 2/4
K: Dmajor
FE||D2 E/F/G|AB cA|dc AF|G2 FG|Ad ef|gf ed|c2 A2|A2 FE|
D2 E/F/G|AB cA|dc AF|G2 FG|Ad ef|gf ed|Ad dc|1 d2 FE:|2 d2 ef||
gf ed|c2 ef|gf ed|a2 ef|gf ed|cd Bc|AG FG|E2 FE|
D2 E/F/G|AB cA|dc AF|G2 FG|Ad ef|gf ed|Ad dc|1 d2 ef:|2 d2 FE||

